X: 20
T:  Verde Gaio
S:  A. Guimares
C:  popular
M: 2/4
K: C
Q: 1/4=80
L: 1/8
E/2E/2 |AA Bc |A G2 E/2E/2 |AA Bc |AG c>B |AG FE |D C2 C/2D/2| E>D EF| D C2 :|
